papirus/16x16/apps/screencloud.svg

<?xml version="1.0" encoding="UTF-8" standalone="no"?>
<!-- Created with Inkscape (http://www.inkscape.org/) -->

<svg
   xmlns:dc="http://purl.org/dc/elements/1.1/"
   xmlns:cc="http://creativecommons.org/ns#"
   xmlns:rdf="http://www.w3.org/1999/02/22-rdf-syntax-ns#"
   xmlns:svg="http://www.w3.org/2000/svg"
   xmlns="http://www.w3.org/2000/svg"
   xmlns:sodipodi="http://sodipodi.sourceforge.net/DTD/sodipodi-0.dtd"
   xmlns:inkscape="http://www.inkscape.org/namespaces/inkscape"
   id="svg2817"
   height="16"
   width="16"
   version="1.0"
   inkscape:version="0.91 r13725"
   sodipodi:docname="screencloud.svg">
  <defs
     id="defs13" />
  <sodipodi:namedview
     pagecolor="#3a3a3a"
     bordercolor="#666666"
     borderopacity="1"
     objecttolerance="10"
     gridtolerance="10"
     guidetolerance="10"
     inkscape:pageopacity="0"
     inkscape:pageshadow="2"
     inkscape:window-width="1600"
     inkscape:window-height="849"
     id="namedview11"
     showgrid="false"
     inkscape:zoom="1"
     inkscape:cx="13.174455"
     inkscape:cy="6.7144242"
     inkscape:window-x="0"
     inkscape:window-y="0"
     inkscape:window-maximized="1"
     inkscape:current-layer="svg2817"
     showborder="true" />
  <metadata
     id="metadata57">
    <rdf:RDF>
      <cc:Work
         rdf:about="">
        <dc:format>image/svg+xml</dc:format>
        <dc:type
           rdf:resource="http://purl.org/dc/dcmitype/StillImage" />
        <dc:title></dc:title>
      </cc:Work>
    </rdf:RDF>
  </metadata>
  <path
     style="opacity:1;fill:#569cde;fill-opacity:1;stroke:none;stroke-width:2;stroke-linecap:round;stroke-linejoin:round;stroke-miterlimit:4;stroke-dasharray:none;stroke-opacity:1"
     d="M 6.9090907,2 A 5.4545456,5.4166666 0 0 0 1.4545455,7.4166666 5.4545456,5.4166666 0 0 0 1.6370739,8.7948135 C 0.66728524,9.2677962 2.5e-8,10.264152 2.5e-8,11.425564 l 0,0.648871 C 2.5e-8,13.695063 1.2962799,15 2.90625,15 l 10.1875,0 C 14.70372,15 16,13.695063 16,12.074435 l 0,-0.648871 C 16,10.197465 15.255036,9.15221 14.193892,8.7172305 A 3.2727272,3.2499999 0 0 0 14.909091,6.6944441 3.2727272,3.2499999 0 0 0 11.636364,3.4444444 3.2727272,3.2499999 0 0 0 10.742188,3.5692817 5.4545456,5.4166666 0 0 0 6.9090907,2 Z"
     id="rect4141"
     inkscape:connector-curvature="0" />
  <path
     style="opacity:1;fill:#aaceee;fill-opacity:1;stroke:none;stroke-width:2;stroke-linecap:round;stroke-linejoin:round;stroke-miterlimit:4;stroke-dasharray:none;stroke-opacity:1"
     d="M 8 5 A 4 4 0 0 0 4 9 A 4 4 0 0 0 8 13 A 4 4 0 0 0 12 9 A 4 4 0 0 0 8 5 z M 8 6 A 3 2.9999999 0 0 1 11 9 A 3 2.9999999 0 0 1 8 12 A 3 2.9999999 0 0 1 5 9 A 3 2.9999999 0 0 1 8 6 z "
     id="path4382" />
  <path
     inkscape:connector-curvature="0"
     style="opacity:1;fill:#ffffff;fill-opacity:1;stroke:none;stroke-width:2;stroke-linecap:round;stroke-linejoin:round;stroke-miterlimit:4;stroke-dasharray:none;stroke-opacity:1"
     d="M 8.0000001,6.9999993 A 2.0000002,2.0000002 0 0 0 6,8.9999995 2.0000002,2.0000002 0 0 0 8.0000001,11 2.0000002,2.0000002 0 0 0 10,8.9999995 2.0000002,2.0000002 0 0 0 8.0000001,6.9999993 Z"
     id="path4139" />
  <circle
     style="opacity:1;fill:#ffffff;fill-opacity:1;stroke:none;stroke-width:2;stroke-linecap:round;stroke-linejoin:round;stroke-miterlimit:4;stroke-dasharray:none;stroke-opacity:1"
     id="path4161"
     cx="5"
     cy="4"
     r="1" />
</svg>

<?xml version="1.0" encoding="UTF-8" standalone="no"?>
<svg id="svg2817" xmlns:rdf="http://www.w3.org/1999/02/22-rdf-syntax-ns#" xmlns="http://www.w3.org/2000/svg" height="16" width="16" version="1.0" xmlns:cc="http://creativecommons.org/ns#" xmlns:dc="http://purl.org/dc/elements/1.1/">
 <metadata id="metadata57">
  <rdf:RDF>
   <cc:Work rdf:about="">
    <dc:format>image/svg+xml</dc:format>
    <dc:type rdf:resource="http://purl.org/dc/dcmitype/StillImage"/>
    <dc:title/>
   </cc:Work>
  </rdf:RDF>
 </metadata>
 <path id="rect4141" d="m6.9091 2a5.4545 5.4167 0 0 0 -5.4546 5.4167 5.4545 5.4167 0 0 0 0.1826 1.3781c-0.96981 0.473-1.6371 1.4692-1.6371 2.6312v0.64887c2.5e-8 1.62 1.2963 2.925 2.9062 2.925h10.188c1.61 0 2.906-1.305 2.906-2.926v-0.64887c0-1.228-0.745-2.2728-1.806-2.7078a3.2727 3.25 0 0 0 0.715 -2.0228 3.2727 3.25 0 0 0 -3.273 -3.25 3.2727 3.25 0 0 0 -0.894 0.1249 5.4545 5.4167 0 0 0 -3.8329 -1.5693z" fill="#569cde"/>
 <path id="path4382" d="m8 5a4 4 0 0 0 -4 4 4 4 0 0 0 4 4 4 4 0 0 0 4 -4 4 4 0 0 0 -4 -4zm0 1a3 3 0 0 1 3 3 3 3 0 0 1 -3 3 3 3 0 0 1 -3 -3 3 3 0 0 1 3 -3z" fill="#aaceee"/>
 <path id="path4139" d="m8 7a2 2 0 0 0 -2 2 2 2 0 0 0 2 2 2 2 0 0 0 2 -2 2 2 0 0 0 -2 -2z" fill="#fff"/>
 <circle id="path4161" cy="4" cx="5" r="1" fill="#fff"/>
</svg>
